X:1
T:Away in a Manger
T:Away in a Manger
T:(for Cello and Violin)
T:Music: Anon./William J Kirkpatrick, Arranged by Todd McCabe and April Moriarty
C:Music: Anon./William J Kirkpatrick, Arranged by Todd McCabe and April Moriarty
%%score 1 2
L:1/8
Q:1/4=80
M:3/4
K:F
V:1 bass nm="Violoncello" snm="Vc."
V:2 treble nm="Violin" snm="Vln."
V:1
 z6 | z6 | z6 | z6 | z6 | z6 | z6 | z2 z2!mp! C2 | (C3 B, A,2) | (A,2 G,2 F,2) | (F,2 E,2) D,2 | %11
 C,4 C,2 | (C,3 D, C,2) | (C,2 G,3 E,) | (D,2 C,2) (F,G,) | A,4 C2 | (C3 B, A,2) | (A,2 G,2 F,2) | %18
 (F,2 E,2) D,2 | C,4 C,2 | (B,3 A, G,2) | (A,2 G,2 F,2) | G,6 | (D,4 E,2) | F,6 | z6 | z6 | z6 | %28
 z6 | z6 | z6 | z2 z2!mf! C,,2 | F,,2 (F,,2 G,,A,,) | (F,,2 F,,2) (A,,B,,) | C,2 (C,2 D,2) | %35
 B,,4 G,,A,, | B,,2 (B,,2 C,2) | (A,,2 A,,2) (F,,A,,) | G,,2 (D,,2 F,,2) | E,,4 C,,2 | %40
 F,,2 (F,,2 G,,A,,) | (F,,2 F,,2) (A,,B,,) | C,2 (C,2 D,2) | B,,4 (G,,A,,) | B,,2 (B,,2 C,2) | %45
 (A,,2 A,,2) (F,,A,,) | G,,6 | (D,,4 E,,2) | F,,6 | z6 | z6 | z6 | z6 | z6 | z6 | z2 z2!mp! C2 | %56
 C3 B, A,2 | A,2 G,2 F,2 | F,3 E, D,2 | D,4 D,2 | (D,4 C,B,,) | (C,2 F,2 G,2) | (E,2 C,2) F,2 | %63
 G,2 (A,2 B,2) | (C3 B, A,2) | (A,2 G,2 F,2) | (F,3 E,) D,2 | D,4 D,2 | (B,A, G,4) | %69
 (A,2 G,2 F,2) | G,6 | (D,4 E,2) | F,6 | z6 | z6 | z6 | z6 | z6 | z6 | z6 |] %80
V:2
 z6 | z6 | z6 | z6 | z6 | z6 | z6 | z6 | z6 | z6 | z6 | z6 | z6 | z6 | z6 | z6 | z6 | z6 | z6 | %19
 z6 | z6 | z6 | z6 | z6 | z6 | z6 | z6 | z6 | z6 | z6 | z6 | z2 z2!mf! (CB,) | A,6 | C6 | F4 (FE) | %35
 D6 | (G3 F E2) | (G2 F2) C2 | D4 B,2 | C4 (CB,) | A,6 | C6 | F4 (FE) | D6 | (G3 F E2) | %45
 (G2 F2) C2 | D6 | (C4 B,2) | A,6 | z6 | z6 | z6 | z6 | z6 | z6 | z2 z2 C2 | F2 (F2 GA) | %57
 (F2 F2) (AB) | c2 (c2 d2) | B4 (GA) | B2 (B2 c2) | (A2 A2) (FA) | G2 (D2 F2) | E4 C2 | %64
 F2 (F2 GA) | (F2 F2) (AB) | c2 (c2 d2) | B4 (GA) | B2 (B2 c2) | (AG F4) | G6 | c4 B2 | A6 | z6 | %74
 z6 | z6 | z6 | z6 | z6 | z6 |] %80

